X:1
T:Title
%%score { ( 1 3 ) | ( 2 4 ) }
L:1/8
M:3/4
K:Eb
V:1 treble nm="Grand Piano"
V:3 treble 
V:2 bass 
V:4 bass 
V:1
 z2 z2[Q:1/4=96] G>G | G3 E G[GB] | [Ge]2 [GB]2 EF | Gc B2 G2 |[M:2/4] [DF]4 |[M:1/4] G>G | %6
[M:3/4] G3 E G[GB] | [Ge]2 [GB]2 EF | GB [EG]2 [DF]2 |[M:2/4] E4 |[M:1/4] ee |[M:3/4] d4 z2 | %12
 c2 z2 z2 | z2 G2 A2 | z E E2 ee | d-[Ad-] [Ad]F .[DAc]2 | c2 z2 z2 | BE G2 [DF]2 |[M:2/4] E4 |] %19
V:2
 z2 z2 [E,B,E]>[E,B,E] | [E,B,E]3 [E,G,] [E,B,E][E,E] | [E,B,]2 [E,E]2 [G,B,][B,D] | %3
 [E,B,E][E,A,E] [E,G,E]2 [E,B,E]2 |[M:2/4] [B,,B,]4 |[M:1/4] [E,B,E]>[E,B,E] | %6
[M:3/4] [E,B,E]3 [E,G,] [E,B,E][E,E] | [E,B,]2 [E,E]2 [G,B,][K:treble][A,CE] | %8
 [B,E][B,G][K:bass] [B,,B,]2 [B,,A,]2 |[M:2/4] [E,G,]4 |[M:1/4] z2 | %11
[M:3/4] [B,,B,][B,,B,] z D z[K:treble] d | E,E, E,2 E,E, | %13
 B,,[B,,B,] [B,,B,][B,,B,] [B,,B,][B,,B,] | [E,B,E][E,B,] [E,B,]2 z2 | %15
 [B,,B,][B,,B,] z D z[K:treble] d | [E,E][E,E] [E,B,E]2 [E,G,E][E,A,E] | %17
 [G,B,E][A,C] [B,E]2 [B,,A,]2 |[M:2/4] [E,G,]4 |] %19
V:3
 x6 | x6 | x6 | x6 |[M:2/4] x4 |[M:1/4] x2 |[M:3/4] x6 | x6 | x6 |[M:2/4] x4 |[M:1/4] x2 | %11
[M:3/4] AA AF .[DAc]2 | [EG][EG] [B,EG]2 [EGB][EGc] | [DFB][DF] EE FF | G4 z2 | .A2 z2 z2 | %16
 GG G2 Bc | x6 |[M:2/4] x4 |] %19
V:4
 x6 | x6 | x6 | x6 |[M:2/4] x4 |[M:1/4] x2 |[M:3/4] x6 | x5[K:treble] x | x2[K:bass] x4 | %9
[M:2/4] x4 |[M:1/4] x2 |[M:3/4] z2 [B,,B,]2 B,,2[K:treble] | x6 | x6 | x6 | %15
 z2 [B,,B,]2 B,,2[K:treble] | x6 | x6 |[M:2/4] x4 |] %19

